images/logo.svg

<svg width="90" height="66" viewBox="0 0 90 66" fill="none" xmlns="http://www.w3.org/2000/svg">
<path d="M9.02031 46.2549C5.74379 45.1252 3.19236 43.6383 1.36328 41.7912L2.78075 39.4715C4.66979 41.1371 7.10401 42.5361 10.0834 43.6657C13.0628 44.7982 16.2358 45.3616 19.5995 45.3616C24.5579 45.3616 28.2161 44.5151 30.5767 42.8164C32.9373 41.1206 34.1176 38.7541 34.1176 35.7197C34.1176 33.5786 33.4825 31.8827 32.2149 30.6321C30.9447 29.3815 29.3664 28.4608 27.4801 27.8643C25.591 27.2706 23.0532 26.6742 19.8666 26.0778C16.1485 25.3632 13.1828 24.6348 10.9693 23.8899C8.7559 23.1478 6.88049 21.9412 5.34854 20.2756C3.81386 18.61 3.04788 16.2902 3.04788 13.3135C3.04788 9.80361 4.47898 6.87365 7.34116 4.52089C10.2006 2.17638 14.3767 1 19.8639 1C22.6961 1 25.5283 1.43152 28.3632 2.29457C31.1955 3.15761 33.4988 4.30376 35.2679 5.73026L33.7632 8.05003C31.9342 6.62079 29.7943 5.53786 27.3465 4.793C24.8959 4.05089 22.3745 3.67709 19.7767 3.67709C15.2326 3.67709 11.8089 4.55662 9.50825 6.3102C7.2076 8.06652 6.05454 10.3726 6.05454 13.2283C6.05454 15.4904 6.70331 17.2769 8.00083 18.5852C9.29836 19.8935 10.9066 20.861 12.8257 21.4849C14.742 22.1089 17.3534 22.7493 20.6599 23.4034C24.2008 24.0576 27.063 24.7585 29.2464 25.5006C31.4299 26.2454 33.2753 27.4191 34.78 29.027C36.2847 30.6349 37.037 32.8639 37.037 35.7224C37.037 39.4715 35.5323 42.4481 32.523 44.6497C29.5136 46.8513 25.1767 47.9535 19.5096 47.9535C15.7914 47.9507 12.2968 47.3873 9.02031 46.2549Z" fill="#DCB62F" stroke="#DCB62F" stroke-width="2"/>
<path d="M77.9373 3.99042C81.3583 5.98587 84.0597 8.78115 86.0359 12.3817C88.0122 15.9823 89.0017 20.0447 89.0017 24.5661C89.0017 29.0902 88.0122 33.1223 86.0359 36.6597C84.0569 40.1998 81.3583 42.9676 77.9373 44.9603C74.5136 46.9558 70.7082 47.9507 66.5185 47.9507C62.0917 47.9507 58.1228 46.8211 54.6118 44.559C51.1009 42.297 48.4895 39.2021 46.7776 35.2772V65H43.8555V1.35731H46.6877V14.0336C48.3995 9.98776 51.0109 6.80219 54.5219 4.48241C58.0328 2.15989 62.0317 1 66.5158 1C70.7055 1 74.5136 1.99772 77.9373 3.99042ZM76.4762 42.6405C79.4556 40.887 81.8026 38.4463 83.5145 35.3212C85.2264 32.196 86.0823 28.6119 86.0823 24.5661C86.0823 20.5202 85.2264 16.9196 83.5145 13.7643C81.8026 10.6117 79.4556 8.15723 76.4762 6.4009C73.4968 4.64733 70.1467 3.76779 66.4286 3.76779C62.7105 3.76779 59.3603 4.64733 56.3809 6.4009C53.3988 8.15723 51.0546 10.6117 49.3427 13.7643C47.6308 16.9196 46.7749 20.5175 46.7749 24.5661C46.7749 28.6147 47.6308 32.1988 49.3427 35.3212C51.0546 38.4463 53.3988 40.887 56.3809 42.6405C59.3603 44.3969 62.7105 45.2737 66.4286 45.2737C70.1467 45.2737 73.4968 44.3969 76.4762 42.6405Z" fill="#DCB62F" stroke="#DCB62F" stroke-width="2"/>
<path d="M2.22393 64.5206C1.70055 64.3199 1.29167 64.0588 1 63.74L1.25896 63.3085C1.537 63.6053 1.91045 63.8444 2.38203 64.0313C2.85361 64.2182 3.34699 64.3117 3.86764 64.3117C4.61999 64.3117 5.1897 64.1688 5.57132 63.8802C5.95567 63.5916 6.14649 63.215 6.14649 62.7533C6.14649 62.396 6.04563 62.1129 5.84119 61.8985C5.63674 61.6868 5.38596 61.5219 5.08611 61.4092C4.78354 61.2965 4.37738 61.1783 3.86764 61.0574C3.28702 60.9145 2.82362 60.7716 2.47198 60.6369C2.12307 60.4995 1.82322 60.2906 1.58062 60.0047C1.33528 59.7189 1.21262 59.3396 1.21262 58.8613C1.21262 58.4738 1.31348 58.1192 1.51792 57.7976C1.72236 57.476 2.03039 57.2177 2.45018 57.028C2.86724 56.8384 3.38788 56.7422 4.01484 56.7422C4.45098 56.7422 4.87895 56.8082 5.30146 56.9346C5.72125 57.0638 6.08652 57.2369 6.39727 57.4568L6.18192 57.9241C5.86572 57.7042 5.5168 57.5365 5.13791 57.4238C4.75901 57.3084 4.38283 57.2534 4.01484 57.2534C3.2843 57.2534 2.73094 57.4018 2.35477 57.6987C1.9786 57.9955 1.79051 58.3776 1.79051 58.8476C1.79051 59.2049 1.89137 59.488 2.09581 59.7024C2.30025 59.914 2.55103 60.0789 2.85088 60.1916C3.15073 60.3043 3.56234 60.428 4.08026 60.5572C4.66087 60.7001 5.12155 60.843 5.46774 60.9777C5.81393 61.1151 6.10832 61.3213 6.35365 61.5989C6.59898 61.8765 6.72165 62.2503 6.72165 62.7203C6.72165 63.1078 6.61807 63.4596 6.4109 63.7785C6.20373 64.0973 5.8848 64.3529 5.45684 64.5426C5.02887 64.7322 4.50005 64.8284 3.87582 64.8284C3.29793 64.8229 2.7473 64.7212 2.22393 64.5206Z" fill="white"/>
<path d="M11.6959 63.9459C11.1425 63.3604 10.8672 62.5084 10.8672 61.3842V56.7969H11.4424V61.3622C11.4424 62.3407 11.6631 63.0746 12.1075 63.5583C12.5518 64.0421 13.1951 64.2867 14.0374 64.2867C14.8715 64.2867 15.5121 64.0448 15.9564 63.5583C16.4007 63.0718 16.6215 62.3407 16.6215 61.3622V56.7969H17.1967V61.3842C17.1967 62.5084 16.9187 63.3604 16.3626 63.9459C15.8065 64.5313 15.0269 64.8226 14.0265 64.8226C13.0261 64.8226 12.2492 64.5286 11.6959 63.9459Z" fill="white"/>
<path d="M22.1445 56.7969H22.7197V64.24H27.2692V64.7622H22.1445V56.7969Z" fill="white"/>
<path d="M32.0988 64.294C31.4746 63.9422 30.9839 63.4585 30.6268 62.8428C30.2698 62.2271 30.0898 61.5427 30.0898 60.7814C30.0898 60.0228 30.267 59.3357 30.6268 58.72C30.9839 58.1043 31.4746 57.6206 32.0988 57.2688C32.7231 56.9169 33.4236 56.7383 34.1978 56.7383C34.9719 56.7383 35.6725 56.9142 36.2967 57.2633C36.9209 57.6123 37.4116 58.0933 37.7687 58.709C38.1258 59.3247 38.3057 60.0146 38.3057 60.7814C38.3057 61.5482 38.1258 62.2381 37.7687 62.8538C37.4116 63.4695 36.9209 63.9505 36.2967 64.2995C35.6725 64.6486 34.9719 64.8218 34.1978 64.8218C33.4236 64.8245 32.7231 64.6459 32.0988 64.294ZM35.9941 63.8323C36.5284 63.53 36.9509 63.1094 37.2589 62.5735C37.567 62.0375 37.7223 61.4411 37.7223 60.7814C37.7223 60.1217 37.567 59.5226 37.2589 58.9893C36.9509 58.4534 36.5284 58.0356 35.9941 57.7305C35.4599 57.4282 34.8602 57.2743 34.2005 57.2743C33.5381 57.2743 32.9384 57.4254 32.3987 57.7305C31.8617 58.0356 31.4364 58.4534 31.1284 58.9893C30.8204 59.5253 30.665 60.1217 30.665 60.7814C30.665 61.4411 30.8204 62.0402 31.1284 62.5735C31.4364 63.1094 31.8589 63.5272 32.3987 63.8323C32.9357 64.1374 33.5381 64.2885 34.2005 64.2885C34.8629 64.2885 35.4599 64.1374 35.9941 63.8323Z" fill="white"/>
<path d="M57.3773 57.5088C57.9415 57.9815 58.225 58.6412 58.225 59.4822C58.225 60.3178 57.9415 60.9719 57.3773 61.4447C56.813 61.9202 56.0334 62.1565 55.0412 62.1565H52.7841V64.7649H52.209V56.7969H55.0412C56.0334 56.7969 56.813 57.0333 57.3773 57.5088ZM56.9711 61.0764C57.4154 60.7053 57.6362 60.1721 57.6362 59.4822C57.6362 58.7923 57.4154 58.2591 56.9711 57.8826C56.5268 57.506 55.8835 57.3191 55.0412 57.3191H52.7841V61.6343H55.0412C55.8835 61.6343 56.5268 61.4502 56.9711 61.0764Z" fill="white"/>
<path d="M66.5768 62.5221H61.9945L60.9887 64.7649H60.3672L64.0035 56.7969H64.5787L68.2123 64.7649H67.5908L66.5768 62.5221ZM66.3614 62.0329L64.2843 57.4345L62.2181 62.0329H66.3614Z" fill="white"/>
<path d="M77.0517 64.7649L75.1654 62.1016C74.8873 62.1401 74.6311 62.1593 74.3967 62.1593H72.1396V64.7649H71.5645V56.7969H74.3967C75.3889 56.7969 76.1685 57.0333 76.7327 57.5088C77.297 57.9815 77.5805 58.6412 77.5805 59.4822C77.5805 60.1116 77.4197 60.6421 77.1007 61.0709C76.7818 61.4996 76.3239 61.802 75.7296 61.9751L77.7059 64.7649H77.0517ZM74.3994 61.6453C75.2417 61.6453 75.885 61.4584 76.3293 61.0819C76.7736 60.7053 76.9944 60.1721 76.9944 59.4822C76.9944 58.7923 76.7736 58.2591 76.3293 57.8826C75.885 57.506 75.2417 57.3191 74.3994 57.3191H72.1423V61.6453H74.3994Z" fill="white"/>
<path d="M83.9603 60.8372L82.1884 62.6705V64.7649H81.6133V56.7969H82.1884V61.9202L87.1223 56.7969H87.8229L84.3446 60.4167L88.06 64.7649H87.3595L83.9603 60.8372Z" fill="white"/>
</svg>

<svg width="90" height="66" fill="none" xmlns="http://www.w3.org/2000/svg"><path d="M9.02 46.255c-3.276-1.13-5.828-2.617-7.657-4.464l1.418-2.32c1.889 1.666 4.323 3.065 7.302 4.195 2.98 1.132 6.153 1.696 9.516 1.696 4.959 0 8.617-.847 10.978-2.546 2.36-1.695 3.54-4.062 3.54-7.096 0-2.141-.634-3.837-1.902-5.088-1.27-1.25-2.849-2.171-4.735-2.768-1.889-.593-4.427-1.19-7.613-1.786-3.719-.715-6.684-1.443-8.898-2.188-2.213-.742-4.089-1.949-5.62-3.614-1.535-1.666-2.301-3.986-2.301-6.963 0-3.51 1.431-6.44 4.293-8.792C10.201 2.176 14.377 1 19.864 1c2.832 0 5.664.432 8.5 1.295 2.831.863 5.135 2.009 6.904 3.435l-1.505 2.32c-1.829-1.43-3.969-2.512-6.416-3.257a25.968 25.968 0 00-7.57-1.116c-4.544 0-7.968.88-10.269 2.633-2.3 1.757-3.453 4.063-3.453 6.918 0 2.262.648 4.049 1.946 5.357 1.297 1.308 2.906 2.276 4.825 2.9 1.916.624 4.527 1.264 7.834 1.918 3.54.655 6.403 1.356 8.586 2.098 2.184.744 4.03 1.918 5.534 3.526 1.505 1.608 2.257 3.837 2.257 6.695 0 3.75-1.505 6.726-4.514 8.928-3.01 2.201-7.346 3.303-13.013 3.303-3.719-.002-7.213-.566-10.49-1.698zM77.937 3.99c3.421 1.996 6.123 4.791 8.099 8.392 1.976 3.6 2.966 7.663 2.966 12.184 0 4.524-.99 8.556-2.966 12.094-1.98 3.54-4.678 6.308-8.099 8.3-3.423 1.996-7.229 2.99-11.418 2.99-4.427 0-8.396-1.129-11.907-3.391-3.511-2.262-6.123-5.357-7.834-9.282V65h-2.922V1.357h2.832v12.677c1.712-4.046 4.323-7.232 7.834-9.552C58.032 2.16 62.032 1 66.516 1c4.19 0 7.998.998 11.421 2.99zm-1.46 38.65c2.979-1.753 5.326-4.194 7.037-7.319 1.712-3.125 2.568-6.71 2.568-10.755 0-4.046-.856-7.646-2.567-10.802-1.712-3.152-4.06-5.607-7.039-7.363-2.98-1.754-6.33-2.633-10.047-2.633-3.718 0-7.069.88-10.048 2.633-2.982 1.756-5.326 4.21-7.038 7.363-1.712 3.156-2.568 6.753-2.568 10.802 0 4.049.856 7.633 2.568 10.755 1.712 3.125 4.056 5.566 7.038 7.32 2.98 1.756 6.33 2.633 10.048 2.633s7.068-.877 10.047-2.633z" fill="#DCB62F" stroke="#DCB62F" stroke-width="2"/><path d="M2.224 64.52c-.523-.2-.932-.461-1.224-.78l.259-.431c.278.296.651.535 1.123.722.472.187.965.28 1.486.28.752 0 1.322-.142 1.703-.43.385-.29.575-.666.575-1.128 0-.357-.1-.64-.305-.855a2.024 2.024 0 00-.755-.489c-.302-.112-.709-.23-1.218-.352a12.02 12.02 0 01-1.396-.42 2.214 2.214 0 01-.891-.632c-.246-.286-.368-.665-.368-1.144 0-.387.1-.742.305-1.063.204-.322.512-.58.932-.77.417-.19.938-.286 1.565-.286.436 0 .864.066 1.286.193.42.129.786.302 1.096.522l-.215.467a3.633 3.633 0 00-1.044-.5 3.844 3.844 0 00-1.123-.17c-.73 0-1.284.148-1.66.445a1.397 1.397 0 00-.564 1.149c0 .357.1.64.305.854.204.212.455.377.755.49.3.112.711.236 1.23.365a11.5 11.5 0 011.387.42c.346.138.64.344.886.622.245.278.368.651.368 1.121a1.9 1.9 0 01-.311 1.059c-.207.318-.526.574-.954.764-.428.19-.957.285-1.581.285a4.702 4.702 0 01-1.652-.307zm9.472-.574c-.553-.586-.829-1.438-.829-2.562v-4.587h.575v4.565c0 .979.221 1.713.665 2.196.445.484 1.088.729 1.93.729.834 0 1.475-.242 1.92-.729.444-.486.665-1.217.665-2.196v-4.565h.575v4.587c0 1.124-.278 1.976-.834 2.562-.556.585-1.336.877-2.336.877-1 0-1.778-.294-2.331-.877zm10.449-7.149h.575v7.443h4.55v.522h-5.125v-7.965zm9.954 7.497a3.864 3.864 0 01-1.472-1.451 4.028 4.028 0 01-.537-2.062c0-.758.177-1.445.537-2.061.357-.616.848-1.1 1.472-1.451a4.204 4.204 0 012.099-.53c.774 0 1.474.175 2.099.524a3.83 3.83 0 011.472 1.446c.357.616.537 1.306.537 2.072 0 .767-.18 1.457-.537 2.073a3.83 3.83 0 01-1.472 1.445c-.624.35-1.325.523-2.1.523a4.174 4.174 0 01-2.098-.528zm3.895-.462a3.325 3.325 0 001.265-1.258 3.53 3.53 0 00.463-1.793c0-.66-.155-1.258-.463-1.792a3.344 3.344 0 00-1.265-1.258 3.584 3.584 0 00-1.794-.457 3.59 3.59 0 00-1.801.456 3.34 3.34 0 00-1.27 1.26 3.53 3.53 0 00-.464 1.791c0 .66.155 1.26.463 1.793.308.535.73.953 1.27 1.258.538.305 1.14.456 1.802.456.663 0 1.26-.15 1.794-.456zm21.383-6.323c.564.472.848 1.132.848 1.973 0 .836-.284 1.49-.848 1.963-.564.475-1.344.712-2.336.712h-2.257v2.608h-.575v-7.968h2.832c.992 0 1.772.236 2.336.712zm-.406 3.567c.444-.37.665-.904.665-1.594 0-.69-.22-1.223-.665-1.6-.444-.376-1.087-.563-1.93-.563h-2.257v4.315h2.257c.843 0 1.486-.184 1.93-.558zm9.606 1.446h-4.582l-1.006 2.243h-.622l3.637-7.968h.575l3.633 7.968h-.621l-1.014-2.243zm-.216-.49l-2.077-4.597-2.066 4.598h4.143zm10.691 2.733l-1.887-2.663a5.635 5.635 0 01-.768.057H72.14v2.606h-.576v-7.968h2.833c.992 0 1.771.236 2.336.712.564.472.847 1.132.847 1.973 0 .63-.16 1.16-.48 1.589-.318.429-.776.731-1.37.904l1.976 2.79h-.654zm-2.653-3.12c.843 0 1.486-.187 1.93-.563.445-.377.665-.91.665-1.6 0-.69-.22-1.223-.665-1.6-.444-.376-1.087-.563-1.93-.563h-2.257v4.326H74.4zm9.561-.808l-1.772 1.833v2.095h-.575v-7.968h.575v5.123l4.934-5.123h.7l-3.477 3.62 3.715 4.348h-.7l-3.4-3.928z" fill="#fff"/></svg>
